frontend/public/svg/interface/folder-delete.svg

<svg width="159" height="141" viewBox="0 0 159 141" fill="none" xmlns="http://www.w3.org/2000/svg">
<g clip-path="url(#clip0)">
<path d="M136.35 0.381298C139.089 0.68409 141.833 0.938884 144.564 1.29821C153.424 2.46779 157.82 7.35411 158.172 16.3495C158.738 30.8517 158.366 45.3292 157.738 59.8308C157.179 72.754 157.673 85.7202 157.574 98.6662C157.523 105.3 157.538 111.967 156.901 118.558C155.541 132.658 147.529 139.965 133.386 140.481C129.96 140.606 126.522 140.509 123.094 140.505C105.39 140.487 87.6856 140.531 69.9825 140.424C54.8224 140.333 39.661 140.184 24.5059 139.803C20.3092 139.633 16.1414 139.028 12.0692 137.996C5.98229 136.543 2.46418 132.377 1.41257 126.225C1.05857 124.266 0.889243 122.278 0.906836 120.287C1.19629 105.679 1.61914 91.0743 1.88463 76.4661C2.04781 67.3915 2.03871 58.3125 2.01411 49.2359C1.91281 47.4681 1.68973 45.7092 1.34649 43.9723C0.618652 38.8593 2.42336 34.8705 7.28184 33.0563C11.5906 31.3523 16.1122 30.2502 20.7197 29.7808C33.282 28.7912 45.8884 28.2143 58.4876 27.7776C66.3356 27.506 74.2019 27.7877 82.0579 27.8189C83.1289 27.8234 84.1999 27.8189 85.3247 27.8189C85.3247 24.8156 85.2599 22.1854 85.3422 19.5596C85.427 16.7975 85.5203 14.0241 85.8382 11.2821C86.4857 5.68236 88.7606 2.98529 94.3042 2.26145C100.326 1.47522 106.423 1.28017 112.492 0.885759C116.01 0.65704 119.536 0.544436 123.06 0.379395L136.35 0.381298ZM96.0855 12.7605C96.0855 16.7852 96.0512 20.5303 96.0991 24.2743C96.125 26.2646 96.4061 28.2551 96.3724 30.2421C96.3025 34.3181 94.9478 36.0806 90.9868 37C88.6401 37.5989 86.2338 37.9295 83.8127 37.9861C75.9541 37.9802 68.0949 37.7783 60.2372 37.5997C47.6188 37.295 34.9937 37.7505 22.4298 38.9639C19.2476 39.3149 16.0957 39.9028 13.0003 40.7228C10.0864 41.4577 9.78407 41.978 9.67916 44.8461C9.59822 47.0553 9.64808 49.2741 9.69924 51.4872C9.99516 64.2129 10.403 76.9372 10.5869 89.6649C10.7514 101.065 10.6076 112.472 10.7423 123.87C10.7915 128.044 12.1184 129.462 16.2367 129.924C21.3983 130.503 26.5884 131.151 31.7694 131.179C51.2513 131.285 70.735 131.126 90.2182 131.114C99.8465 131.108 109.475 131.208 119.103 131.253C124.637 131.279 130.176 131.473 135.704 131.262C141.882 131.025 145.018 128.444 146.533 122.454C147.241 119.667 147.614 116.805 147.642 113.929C147.692 106.181 147.383 98.4316 147.375 90.6824C147.365 79.8378 147.436 68.9931 147.59 58.1486C147.702 49.736 148.068 41.3261 148.13 32.9136C148.165 27.9357 147.897 22.9511 147.638 17.9758C147.396 13.3456 146.893 12.8953 142.415 12.4814C141.314 12.3794 140.207 12.2503 139.103 12.2516C126.04 12.2685 112.978 12.3035 99.9157 12.3576C98.633 12.4247 97.3547 12.5593 96.0855 12.7605Z" fill="black"/>
<path d="M104.254 107.302C102.389 109.167 99.4432 109.206 96.9242 107.406C95.9322 106.644 95.0153 105.789 94.1852 104.853L93.6736 104.314C91.0446 101.572 88.4285 98.8102 85.6765 95.9122L81.6876 91.7011L78.4175 95.1449C76.5138 97.1591 74.6747 99.102 72.8422 101.045C72.3177 101.597 71.8126 102.163 71.3075 102.735C70.3051 103.916 69.2257 105.03 68.0763 106.068C66.813 107.234 65.3226 108.126 63.6989 108.686C62.9307 108.962 62.1013 109.017 61.3032 108.848C60.5051 108.678 59.7698 108.29 59.1792 107.725C58.1366 106.627 57.8777 105.003 58.4734 103.281C59.0432 101.637 60.1828 99.8953 62.0671 97.8096C64.1263 95.5354 66.3474 93.3125 68.4972 91.1683C69.6239 90.0442 70.7506 88.9201 71.8644 87.7765C72.3889 87.2437 72.8487 86.6784 73.425 85.9701C73.7229 85.6062 74.0466 85.2105 74.4287 84.7557L75.0244 84.0468L70.8348 80.0962C67.9144 77.3412 65.02 74.6193 62.1384 71.8708L61.4261 71.195C60.2018 70.1014 59.0651 68.9124 58.0265 67.6401C57.5869 67.1508 57.3415 66.5173 57.3367 65.8584C57.332 65.1996 57.5682 64.562 58.0007 64.0664C58.2861 63.6612 58.6579 63.3251 59.0891 63.0823C59.5204 62.8395 60.0002 62.6967 60.4937 62.6635C60.9545 62.6689 61.4074 62.7845 61.8146 63.0011C64.0094 64.0362 66.1 65.2808 68.0569 66.7174C71.0679 69.0696 73.9689 71.5069 77.0447 74.093C78.3204 75.1651 79.6155 76.2496 80.9429 77.3542L81.6358 77.926L82.2575 77.2833C83.2935 76.2177 84.3231 75.1514 85.3462 74.0858C87.8522 71.4867 90.4424 68.7967 93.0261 66.2041C94.382 64.7771 95.8649 63.4768 97.4552 62.319C99.1842 61.1299 101.03 61.1233 102.279 62.2929C102.908 62.9061 103.284 63.7334 103.335 64.6115C103.385 65.4894 103.106 66.3549 102.551 67.0358C100.078 70.5576 97.3128 73.9825 94.6384 77.2898L93.6995 78.4588C92.7411 79.6479 91.6727 80.7921 90.5395 82.0007C89.9826 82.592 89.4128 83.2021 88.8235 83.8519L88.163 84.5861L88.9012 85.2359C90.1315 86.321 91.3379 87.3827 92.521 88.4204C95.4867 91.026 98.2841 93.4879 101.075 96.0156C102.446 97.1695 103.677 98.4827 104.74 99.9278C106.4 102.397 106.213 105.359 104.254 107.302Z" fill="black"/>
</g>
<defs>
<clipPath id="clip0">
<rect width="158" height="141" fill="white" transform="translate(0.777344)"/>
</clipPath>
</defs>
</svg>

<svg xmlns="http://www.w3.org/2000/svg" width="159" height="141" fill="none" viewBox="0 0 159 141"><g fill="#000" clip-path="url(#a)"><path d="M136.35.381c2.739.303 5.483.558 8.214.917 8.86 1.17 13.256 6.056 13.608 15.051.566 14.503.194 28.98-.434 43.482-.559 12.923-.065 25.89-.164 38.835-.051 6.634-.036 13.301-.673 19.892-1.36 14.1-9.372 21.407-23.515 21.923-3.426.125-6.864.028-10.292.024-17.704-.018-35.408.026-53.111-.081-15.16-.091-30.322-.24-45.477-.621a60.6 60.6 0 0 1-12.437-1.807c-6.087-1.453-9.605-5.619-10.656-11.771a32 32 0 0 1-.506-5.938c.29-14.608.712-29.213.978-43.82.163-9.076.154-18.154.13-27.231a38.5 38.5 0 0 0-.669-5.264C.62 38.86 2.423 34.87 7.282 33.056a50.4 50.4 0 0 1 13.438-3.275c12.562-.99 25.168-1.567 37.768-2.003 7.848-.272 15.714.01 23.57.04 1.07.005 2.142 0 3.267 0 0-3.002-.065-5.633.017-8.258.085-2.762.178-5.536.496-8.278.648-5.6 2.923-8.297 8.466-9.02 6.022-.787 12.119-.982 18.188-1.376 3.518-.229 7.044-.342 10.568-.507zm-40.264 12.38c0 4.024-.035 7.77.013 11.513.026 1.99.307 3.981.273 5.968-.07 4.076-1.424 5.839-5.385 6.758-2.347.599-4.753.93-7.174.986-7.859-.006-15.718-.208-23.576-.386a314 314 0 0 0-37.807 1.364A64.4 64.4 0 0 0 13 40.723c-2.914.735-3.216 1.255-3.32 4.123-.082 2.21-.032 4.428.02 6.641.295 12.726.703 25.45.887 38.178.164 11.4.02 22.807.155 34.205.05 4.174 1.376 5.592 5.495 6.054 5.161.579 10.351 1.227 15.532 1.255 19.482.106 38.966-.053 58.45-.065 9.628-.006 19.256.094 28.884.139 5.534.026 11.073.22 16.601.009 6.178-.237 9.314-2.818 10.829-8.808a36 36 0 0 0 1.109-8.525c.05-7.748-.259-15.497-.267-23.247q-.016-16.266.215-32.533c.112-8.413.478-16.823.54-25.235.035-4.978-.233-9.963-.492-14.938-.242-4.63-.745-5.08-5.223-5.495-1.101-.102-2.208-.23-3.312-.23q-19.594.027-39.187.107a37 37 0 0 0-3.83.402"/><path d="M104.254 107.302c-1.865 1.865-4.81 1.904-7.33.104a19.7 19.7 0 0 1-2.739-2.553l-.511-.539c-2.63-2.742-5.246-5.504-7.998-8.402l-3.988-4.21-3.27 3.443c-1.904 2.014-3.743 3.957-5.576 5.9a63 63 0 0 0-1.534 1.69 35 35 0 0 1-3.232 3.333 12.4 12.4 0 0 1-4.377 2.618 4.39 4.39 0 0 1-4.52-.961c-1.042-1.098-1.301-2.722-.706-4.444.57-1.644 1.71-3.386 3.594-5.471 2.06-2.275 4.28-4.498 6.43-6.642a317 317 0 0 0 3.367-3.392c.525-.532.985-1.098 1.561-1.806.298-.364.622-.76 1.004-1.214l.595-.71-4.19-3.95c-2.92-2.755-5.814-5.477-8.696-8.225l-.712-.676a31 31 0 0 1-3.4-3.555 2.695 2.695 0 0 1-.025-3.574 3.33 3.33 0 0 1 2.493-1.403c.46.006.913.122 1.32.338a38 38 0 0 1 6.243 3.716c3.01 2.353 5.912 4.79 8.988 7.376a910 910 0 0 0 3.898 3.261l.693.572.621-.643a710 710 0 0 0 3.09-3.197c2.505-2.6 5.095-5.29 7.68-7.882a32.5 32.5 0 0 1 4.428-3.885c1.73-1.19 3.575-1.196 4.824-.026a3.52 3.52 0 0 1 .272 4.743c-2.473 3.522-5.238 6.947-7.913 10.254l-.939 1.169c-.958 1.189-2.026 2.333-3.16 3.542a133 133 0 0 0-1.716 1.85l-.66.735.738.65q1.845 1.628 3.62 3.184c2.966 2.606 5.763 5.068 8.554 7.596a22.7 22.7 0 0 1 3.665 3.912c1.66 2.469 1.473 5.431-.486 7.374"/></g><defs><clipPath id="a"><path fill="#fff" d="M.777 0h158v141h-158z"/></clipPath></defs></svg>
